X: 31111
T: Paddy Fahey's
R: reel
M: 4/4
K: Cmajor
c2cB cGEG|F2DF EFGA|~_B3G ~c3d|egdc BGBd|
c2cB cGEG|F2DF EFGA|_B2Gc cBGF|EFB,D C2EG:|
~c3e g^fag|^fgec G=FEG|F2DF EFGA|Bcde fdBd|
~c3e g^fag|^fgec G=FEG|F2DF EG,CE|FDB,D C2EG:|

